X: 1
T: Knocknaboul, The
M: 12/8
L: 1/8
R: slide
K: Gmaj
G2 B d^cd e2 f g2 g|f2 e dcB c2 A B2 A|G2 B d^cd e2 f gfe|dBG ABA G2 D E2 D|
G2 B d^cd e2 f g3|f2 e dcB c3 B2 A|G2 B d^cd e2 f gfe|dBG ABA G3 G2 A|
BcB ABA G2 D GAB|c2 D B2 D A2 G E2 D|BcB ABA GBd g2 e|dBG ABA G3 G2 A| 
BcB ABA G2 D GAB|cdc BcB A2 G E2 D|BcB ABA GBd g2 e|dBG ABA G2 D E2 D|
